icon/bts/microphone.svg

<svg xmlns="http://www.w3.org/2000/svg" width="32" height="32" fill="none" stroke="currentcolor" stroke-linecap="round" stroke-linejoin="round" stroke-width="2"><path d="M16 2c-4 0-4 4-4 4v10s0 4 4 4 4-4 4-4V6s0-4-4-4ZM8 17s0 7 8 7 8-7 8-7M13 29h6m-3-5v5"/></svg>

<svg id="i-microphone" xmlns="http://www.w3.org/2000/svg" viewBox="0 0 32 32" fill="none" stroke="currentcolor" stroke-linecap="round" stroke-linejoin="round" stroke-width="2" height="1em" width="1em">
  <path d="M16 2 C12 2 12 6 12 6 L12 16 C12 16 12 20 16 20 20 20 20 16 20 16 L20 6 C20 6 20 2 16 2 Z M8 17 C8 17 8 24 16 24 24 24 24 17 24 17 M13 29 L19 29 M16 24 L16 29"/>
</svg>
